icons/pneumonia.svg

<svg width="48" height="48" viewBox="0 0 48 48" fill="none" xmlns="http://www.w3.org/2000/svg">
<path d="M33.974 18.9999C33.9749 20.1045 33.0802 21.0006 31.9757 21.0015C30.8711 21.0024 29.9749 20.1077 29.974 19.0032C29.9731 17.8986 30.8678 17.0024 31.9724 17.0015C33.0769 17.0006 33.9731 17.8953 33.974 18.9999Z" fill="black"/>
<path d="M36.9896 37.9974C38.0941 37.9965 38.9888 37.1003 38.9879 35.9958C38.987 34.8912 38.0909 33.9965 36.9863 33.9974C35.8817 33.9983 34.987 34.8945 34.9879 35.999C34.9888 37.1036 35.885 37.9983 36.9896 37.9974Z" fill="black"/>
<path d="M33.986 33.9999C33.9869 35.1045 33.0922 36.0006 31.9876 36.0015C30.883 36.0024 29.9869 35.1077 29.986 34.0032C29.9851 32.8986 30.8798 32.0024 31.9843 32.0015C33.0889 32.0006 33.9851 32.8953 33.986 33.9999Z" fill="black"/>
<path d="M35.9837 30.9984C37.0883 30.9975 37.983 30.1013 37.9821 28.9967C37.9812 27.8922 37.085 26.9975 35.9804 26.9984C34.8759 26.9993 33.9812 27.8954 33.9821 29C33.983 30.1046 34.8791 30.9993 35.9837 30.9984Z" fill="black"/>
<path d="M33.9786 24.9999C33.9795 26.1045 33.0848 27.0006 31.9802 27.0015C30.8756 27.0024 29.9795 26.1077 29.9786 25.0032C29.9777 23.8986 30.8724 23.0024 31.9769 23.0015C33.0815 23.0006 33.9777 23.8953 33.9786 24.9999Z" fill="black"/>
<path d="M15.9754 21.0146C14.8708 21.0155 13.9747 20.1209 13.9738 19.0163C13.9729 17.9117 14.8676 17.0155 15.9721 17.0146C17.0767 17.0137 17.9729 17.9084 17.9738 19.013C17.9747 20.1176 17.08 21.0137 15.9754 21.0146Z" fill="black"/>
<path d="M8.98793 36.0204C8.98884 37.125 9.885 38.0197 10.9896 38.0188C12.0941 38.0179 12.9888 37.1217 12.9879 36.0172C12.987 34.9126 12.0909 34.0179 10.9863 34.0188C9.88172 34.0197 8.98703 34.9159 8.98793 36.0204Z" fill="black"/>
<path d="M15.9876 36.0146C14.883 36.0155 13.9869 35.1209 13.986 34.0163C13.9851 32.9117 14.8798 32.0156 15.9843 32.0146C17.0889 32.0137 17.9851 32.9084 17.986 34.013C17.9869 35.1176 17.0922 36.0137 15.9876 36.0146Z" fill="black"/>
<path d="M9.98207 29.0195C9.98298 30.124 10.8791 31.0187 11.9837 31.0178C13.0883 31.0169 13.983 30.1208 13.9821 29.0162C13.9812 27.9116 13.085 27.0169 11.9804 27.0178C10.8759 27.0187 9.98117 27.9149 9.98207 29.0195Z" fill="black"/>
<path d="M15.9803 27.0146C14.8757 27.0155 13.9796 26.1209 13.9787 25.0163C13.9778 23.9117 14.8724 23.0156 15.977 23.0146C17.0816 23.0137 17.9777 23.9084 17.9787 25.013C17.9796 26.1176 17.0849 27.0137 15.9803 27.0146Z" fill="black"/>
<path fill-rule="evenodd" clip-rule="evenodd" d="M24 6.00122C25 6.00122 25 6.00126 25 6.00135L25.0003 20.4973C25.0003 21.8944 25.5642 22.4386 26.0041 22.6951C26.0531 22.7237 26.1024 22.7496 26.1515 22.7732C26.1505 22.6537 26.1492 22.5292 26.1478 22.4003C26.11 18.8717 26.0364 12 31.4752 12C38.9258 12 44.2477 38.0065 41.0546 40.6602C37.8614 43.3139 31.4752 41.7217 28.2821 38.5372C25.7041 35.9663 25.9271 29.9586 26.0873 25.646C26.0971 25.3817 26.1066 25.1237 26.1153 24.8734C25.7901 24.7925 25.3962 24.6558 24.9966 24.4228C24.6406 24.2152 24.2986 23.9414 24.0014 23.5897C23.7036 23.9426 23.3609 24.2171 23.0041 24.4252C22.6045 24.6583 22.2106 24.7949 21.8854 24.8758C21.8941 25.1254 21.9036 25.3824 21.9134 25.6458C22.0738 29.9584 22.2972 35.9663 19.7193 38.5372C16.5264 41.7217 10.1402 43.3139 6.94693 40.6602C3.75364 38.0065 9.07407 12 16.5247 12C21.9635 12 21.8903 18.8717 21.8527 22.4003C21.8525 22.4165 21.8524 22.4327 21.8522 22.4488C21.851 22.5614 21.8499 22.6705 21.849 22.7757C21.8982 22.7521 21.9475 22.7261 21.9966 22.6975C22.4364 22.441 23.0003 21.8968 23.0003 20.4997L23 6.00135C23 6.00126 23 6.00122 24 6.00122ZM31.4752 14C30.5211 14 29.9842 14.3005 29.6085 14.6872C29.1751 15.1334 28.8131 15.851 28.559 16.865C28.114 18.6399 28.1329 20.6823 28.1482 22.3296C28.1508 22.6146 28.1533 22.8877 28.1533 23.1457C28.1533 23.9056 28.1196 24.8156 28.0844 25.7624L28.0844 25.7637C28.0705 26.1361 28.0565 26.5141 28.0442 26.8908C27.9995 28.266 27.974 29.7058 28.0404 31.0985C28.1071 32.4988 28.2641 33.7838 28.5572 34.8599C28.8537 35.9486 29.2508 36.6787 29.6943 37.1211C30.9725 38.3957 32.9907 39.4255 35.0491 39.8246C37.0841 40.2192 38.7223 39.9272 39.6817 39.1972C39.6867 39.186 39.6922 39.1729 39.6983 39.1577C39.7575 39.0098 39.8293 38.7557 39.8877 38.3686C40.0046 37.5936 40.0349 36.5126 39.9562 35.1806C39.7994 32.5308 39.2285 29.1692 38.3267 25.8609C37.4215 22.5399 36.2172 19.4001 34.852 17.1386C34.1687 16.0065 33.495 15.1789 32.8702 14.6538C32.2517 14.134 31.7934 14 31.4752 14ZM16.5248 14C17.4789 14 18.0158 14.3005 18.3915 14.6872C18.825 15.1334 19.187 15.851 19.4412 16.865C19.8862 18.6399 19.8675 20.6823 19.8523 22.3296C19.8497 22.6146 19.8472 22.8877 19.8472 23.1457C19.8472 23.9056 19.8811 24.8156 19.9163 25.7624C19.9301 26.1352 19.9442 26.5136 19.9565 26.8908C20.0014 28.266 20.0269 29.7058 19.9606 31.0985C19.894 32.4988 19.737 33.7838 19.444 34.8599C19.1475 35.9486 18.7505 36.6787 18.307 37.1211C17.0289 38.3957 15.0108 39.4254 12.9524 39.8246C10.9174 40.2192 9.27921 39.9272 8.31972 39.1972C8.31475 39.186 8.30919 39.1729 8.30311 39.1577C8.24389 39.0098 8.17207 38.7557 8.11369 38.3686C7.99679 37.5936 7.96634 36.5125 8.04506 35.1806C8.20167 32.5308 8.77238 29.1692 9.67397 25.8609C10.579 22.5399 11.7831 19.4001 13.1482 17.1386C13.8314 16.0066 14.505 15.1789 15.1298 14.6538C15.7483 14.134 16.2066 14 16.5248 14Z" fill="black"/>
</svg>

<svg
  xmlns="http://www.w3.org/2000/svg"
  width="24"
  height="24"
  viewBox="0 0 24 24"
  fill="none"
  stroke="currentColor"
  stroke-width="2"
  stroke-linecap="round"
  stroke-linejoin="round"
>
  <path d="M33.974 19a2 2 0 1 1-4 .003 2 2 0 0 1 4-.003" />
  <path d="M36.99 37.997a2 2 0 1 0-.004-4 2 2 0 0 0 .004 4" />
  <path d="M33.986 34a2 2 0 1 1-4 .003 2 2 0 0 1 4-.003" />
  <path d="M35.984 30.998a2 2 0 1 0-.004-4 2 2 0 0 0 .004 4" />
  <path d="M33.979 25a2 2 0 1 1-4 .003 2 2 0 0 1 4-.003" />
  <path d="M15.975 21.015a2 2 0 1 1-.003-4 2 2 0 0 1 .003 4" />
  <path d="M8.988 36.02a2 2 0 1 0 4-.003 2 2 0 0 0-4 .003" />
  <path d="M15.988 36.015a2 2 0 1 1-.004-4 2 2 0 0 1 .004 4" />
  <path d="M9.982 29.02a2 2 0 1 0 4-.004 2 2 0 0 0-4 .004" />
  <path d="M15.98 27.015a2 2 0 1 1-.003-4 2 2 0 0 1 .003 4" />
  <path
    fill-rule="evenodd"
    d="M24 6.001h1v14.496c0 1.397.564 1.942 1.004 2.198q.074.044.147.078l-.003-.373c-.038-3.528-.112-10.4 5.327-10.4 7.45 0 12.773 26.007 9.58 28.66-3.194 2.654-9.58 1.062-12.773-2.123-2.578-2.57-2.355-8.578-2.195-12.891q.016-.396.028-.773a4.3 4.3 0 0 1-1.118-.45A3.8 3.8 0 0 1 24 23.59c-.297.353-.64.627-.997.835-.4.233-.793.37-1.119.45l.028.77c.16 4.313.384 10.321-2.194 12.892-3.193 3.185-9.579 4.777-12.772 2.123S9.074 12 16.525 12c5.439 0 5.365 6.872 5.328 10.4v.049l-.004.327q.075-.036.148-.078C22.437 22.44 23 21.897 23 20.5V6zM31.475 14c-.954 0-1.49.3-1.867.687-.433.446-.795 1.164-1.049 2.178-.445 1.775-.426 3.817-.41 5.465q.003.428.004.816c0 .76-.033 1.67-.069 2.616v.002l-.04 1.127c-.044 1.375-.07 2.815-.004 4.208.067 1.4.224 2.685.517 3.76.297 1.09.694 1.82 1.137 2.262 1.279 1.275 3.297 2.304 5.355 2.704 2.035.394 3.673.102 4.633-.628l.016-.04a3.7 3.7 0 0 0 .19-.788c.117-.775.147-1.856.068-3.188-.157-2.65-.728-6.012-1.63-9.32-.904-3.321-2.109-6.46-3.474-8.722-.683-1.133-1.357-1.96-1.982-2.485-.618-.52-1.077-.654-1.395-.654m-14.95 0c.954 0 1.49.3 1.867.687.433.446.795 1.164 1.05 2.178.444 1.775.425 3.817.41 5.465q-.004.428-.005.816c0 .76.034 1.67.07 2.616l.04 1.129c.044 1.375.07 2.815.004 4.208-.067 1.4-.224 2.685-.517 3.76-.296 1.09-.694 1.82-1.137 2.262-1.278 1.275-3.296 2.304-5.355 2.704-2.035.394-3.673.102-4.632-.628l-.017-.04a3.7 3.7 0 0 1-.19-.788c-.116-.775-.147-1.856-.068-3.188.157-2.65.727-6.012 1.629-9.32.905-3.321 2.11-6.46 3.474-8.722.683-1.132 1.357-1.96 1.982-2.485.618-.52 1.077-.654 1.395-.654"
    clip-rule="evenodd"
  />
</svg>
